X: 30290
T: Old Maids Of Galway, The
R: reel
M: 4/4
K: Bminor
dc|BF ~F2 BFAF|E2 DE FAA2|BF ~F2 BFAF|E2 DE FDdc|
BF ~F2 BFAF|E2 DE FAA2|BABc dBAF|E2 DE FDD2||
dfed BAFA|dfed Be ~e2|defd BAFD|E2 DE FDD2|
dfed BAFA|defd Be ~e2|fdec dBAF|E2 DE FDdc||

